X:1
T:Amerikavisan
R:Visa
Z:Klas Krantz, 2006
O:Sverige
S:knd genom Jan Johansson
L:1/4
M:4/4
K:Gm
G/B/ | "Gm"d>d"(C/G)"cd | "Gm"B2GB | "Dm"AADF/A/ | "Gm"G3G/B/ |
d>cd"D7"=e/^f/ | "Eb"g2ag | "F"fg/f/"C"=ec | "D"d3d |
"D7"d>^fab | "Gm"g2"Dm"=fd | "Eb"ef/e/"Bb"dB | "F"c3c |
"Cm"c>ded | "Gm"dgdc | Bc/B/"Dm"A=F | "Gm"G3 |]
